icons/mobile/24/svg/avatar-circle-24.svg

<svg width="24" height="24" viewBox="0 0 24 24" fill="none" xmlns="http://www.w3.org/2000/svg">
<path d="M12.001 13.25C13.2718 13.25 14.4386 13.3443 15.4795 13.4873C16.2735 13.5963 16.9298 14.0754 17.2988 14.7344C17.5156 15.1222 17.465 15.6207 17.1953 15.9736C15.9975 17.5404 14.1216 18.5602 12.001 18.5605C9.88039 18.5602 8.00445 17.5414 6.80664 15.9736C6.53695 15.6207 6.48635 15.1222 6.70312 14.7344C7.07113 14.0754 7.72846 13.5963 8.52246 13.4873C9.56335 13.3453 10.7302 13.25 12.001 13.25Z" fill="black"/>
<path d="M12 7C13.381 7 14.5 8.119 14.5 9.5C14.5 11.097 13.002 12.3451 11.334 11.9141C10.492 11.6971 9.80294 11.008 9.58594 10.166C9.15495 8.49803 10.403 7.00002 12 7Z" fill="black"/>
<path fill-rule="evenodd" clip-rule="evenodd" d="M12 2C17.523 2 22 6.477 22 12C22 17.523 17.523 22 12 22C6.477 22 2 17.523 2 12C2 6.477 6.477 2 12 2ZM12 3.75C7.451 3.75 3.75 7.451 3.75 12C3.75 16.549 7.451 20.25 12 20.25C16.549 20.25 20.25 16.549 20.25 12C20.25 7.451 16.549 3.75 12 3.75Z" fill="black"/>
</svg>

<!-- This Source Code Form is subject to the terms of the Mozilla Public
   - License, v. 2.0. If a copy of the MPL was not distributed with this
   - file, You can obtain one at http://mozilla.org/MPL/2.0/. -->
<svg xmlns="http://www.w3.org/2000/svg" width="24" height="24" fill="none" viewBox="0 0 24 24">
    <path fill="#000" d="M12.001 13.25c1.27 0 2.438.094 3.479.237a2.47 2.47 0 0 1 1.819 1.247c.217.388.166.887-.104 1.24-1.197 1.566-3.073 2.586-5.194 2.587-2.12 0-3.997-1.02-5.194-2.587a1.15 1.15 0 0 1-.104-1.24 2.47 2.47 0 0 1 1.82-1.247A26 26 0 0 1 12 13.25M12 7a2.5 2.5 0 0 1 2.5 2.5 2.505 2.505 0 0 1-3.166 2.414 2.47 2.47 0 0 1-1.748-1.748A2.505 2.505 0 0 1 12 7" />
    <path fill="#000" fill-rule="evenodd" d="M12 2c5.523 0 10 4.477 10 10s-4.477 10-10 10S2 17.523 2 12 6.477 2 12 2m0 1.75c-4.549 0-8.25 3.701-8.25 8.25s3.701 8.25 8.25 8.25 8.25-3.701 8.25-8.25S16.549 3.75 12 3.75" clip-rule="evenodd" />
</svg>
